logos/growth-book-icon.svg

<?xml version="1.0" encoding="UTF-8"?>
<svg width="256px" height="272px" viewBox="0 0 256 272" version="1.1" xmlns="http://www.w3.org/2000/svg" preserveAspectRatio="xMidYMid">
    <title>GrowthBook</title>
    <g>
        <path d="M83.6548409,96.9752288 L256,0 C256,0 239.752017,14.2930369 240.466463,45.2324586 C241.228264,78.2050659 256,90.4659468 256,90.4659468 L235.748443,81.2388876 L77.2114444,143.302005 C77.2114444,143.302005 73.3622896,132.517371 73.2994924,124.388747 C73.1358081,104.334846 83.6548409,96.9752288 83.6548409,96.9752288 Z" fill="#029DD1"></path>
        <path d="M46.9905864,160.371498 L235.289303,91.4923194 C235.289303,91.4923194 219.04132,105.785356 219.755766,136.725808 C220.517567,169.698415 235.289303,181.958266 235.289303,181.958266 L208.982456,171.831458 L39.9727506,205.10055 C39.9727506,205.10055 36.6949467,195.160074 36.6333707,187.785016 C36.4725831,167.730085 46.9905864,160.371498 46.9905864,160.371498 Z" fill="#0047BD"></path>
        <path d="M10.3572157,216.229024 L209.030841,180.588054 C209.030841,180.588054 192.782857,194.88109 193.497303,225.820512 C194.259104,258.793119 209.030841,271.054 209.030841,271.054 L11.8406691,271.054 C11.8406691,271.054 0.174816712,263.96822 0,242.61308 C-0.160787583,222.55815 10.3572157,216.229024 10.3572157,216.229024 Z" fill="#4817A1"></path>
    </g>
</svg>

<svg preserveAspectRatio="xMidYMid" viewBox="0 0 256 272" xmlns="http://www.w3.org/2000/svg">
  <path fill="#029DD1" d="M83.655 96.975 256 0s-16.248 14.293-15.534 45.232C241.228 78.205 256 90.466 256 90.466l-20.252-9.227-158.537 62.063s-3.849-10.785-3.912-18.913c-.163-20.054 10.356-27.414 10.356-27.414Z"/>
  <path fill="#0047BD" d="m46.99 160.371 188.3-68.879s-16.249 14.293-15.534 45.234c.762 32.972 15.533 45.232 15.533 45.232l-26.307-10.127-169.01 33.27s-3.277-9.94-3.339-17.316c-.16-20.055 10.358-27.414 10.358-27.414Z"/>
  <path fill="#4817A1" d="m10.357 216.229 198.674-35.64s-16.248 14.292-15.534 45.232c.762 32.972 15.534 45.233 15.534 45.233H11.84S.175 263.968 0 242.614c-.16-20.056 10.357-26.385 10.357-26.385Z"/>
</svg>
